;FLAVOR:Marlin
;TIME:1861
;Filament used: 0.852136m
;Layer height: 0.16
;MINX:123.114
;MINY:118.167
;MINZ:0.16
;MAXX:176.886
;MAXY:171.946
;MAXZ:9.88
;Generated with Cura_SteamEngine 4.13.0
M140 S60
M105
M190 S60
M104 S240
M105
M109 S240
M82 ;absolute extrusion mode
G28; Fahr zum Nullpunkt
G29; Probe Time
G92 E0; setze den Extruder auf Null
M 501; Daten aus EEProm lesen
M 420 S1; Bettnivelierung Aktivieren
G1 Z2.0 F3000; Druckkopf 2mm nach oben fahren
G1 X10.1 Y20 Z0.28 F5000.0; Fahre an die Startposition X10.1 Y20 Z0.28
G1 X10.1 Y200.0 Z0.28 F1500.0 E15; Ziehe eine Linie von der Startposition aus nach Y200
G1 X10.4 Y200.0 Z0.28 F5000.0; Bissl zur Seite bewegen
G1 X10.4 Y20 Z0.28 F1500.0 E30; eine 2. Linie nach vorne ziehen
G92 E0; setze den Extruder auf Null
G1 Z1.0 F3000; Fahr die Düse 2mm nach oben
G92 E0
G92 E0
;LAYER_COUNT:81
;LAYER:0
M107
G0 F6000 X130.475 Y126.567 Z0.16
;TYPE:SKIRT
G1 F1200 X131.112 Y125.919 E0.02418
G1 X131.165 Y125.866 E0.02617
G1 X131.8 Y125.261 E0.04951
G1 X132.466 Y124.67 E0.0732
G1 X133.114 Y124.131 E0.09563
G1 X133.89 Y123.529 E0.12176
G1 X133.954 Y123.48 E0.12391
G1 X134.68 Y122.958 E0.1477
G1 X135.305 Y122.537 E0.16775
G1 X136.194 Y121.983 E0.19562
G1 X136.882 Y121.584 E0.21678
G1 X136.953 Y121.544 E0.21895
G1 X137.796 Y121.096 E0.24435
G1 X138.501 Y120.75 E0.26525
G1 X139.406 Y120.343 E0.29165
G1 X140.157 Y120.032 E0.31328
G1 X140.241 Y119.999 E0.31568
G1 X141.065 Y119.695 E0.33905
G1 X141.92 Y119.41 E0.36303
G1 X142.791 Y119.151 E0.38721
G1 X143.708 Y118.914 E0.41241
G1 X144.648 Y118.705 E0.43803
G1 X145.465 Y118.552 E0.46015
G1 X146.28 Y118.426 E0.48209
G1 X147.279 Y118.306 E0.50887
G1 X147.361 Y118.297 E0.51106
G1 X148.212 Y118.227 E0.53378
G1 X149.133 Y118.181 E0.55832
G1 X150.041 Y118.167 E0.58248
G1 X150.867 Y118.181 E0.60446
G1 X151.787 Y118.227 E0.62897
G1 X152.639 Y118.297 E0.65172
G1 X153.639 Y118.415 E0.67851
G1 X154.457 Y118.539 E0.70053
G1 X154.535 Y118.552 E0.70263
G1 X155.352 Y118.705 E0.72475
G1 X156.292 Y118.914 E0.75037
G1 X156.372 Y118.933 E0.75256
G1 X157.134 Y119.131 E0.77351
G1 X158.002 Y119.386 E0.79758
G1 X158.86 Y119.67 E0.82163
G1 X159.759 Y120.001 E0.84712
G1 X159.838 Y120.031 E0.84937
G1 X160.598 Y120.344 E0.87124
G1 X161.499 Y120.75 E0.89753
G1 X162.276 Y121.133 E0.92058
G1 X163.12 Y121.584 E0.94604
G1 X163.739 Y121.942 E0.96507
G1 X164.621 Y122.49 E0.9927
G1 X165.316 Y122.956 E1.01496
G1 X165.382 Y123.001 E1.01709
G1 X166.11 Y123.528 E1.041
G1 X166.819 Y124.076 E1.06485
G1 X167.477 Y124.621 E1.08758
G1 X168.134 Y125.202 E1.11092
G1 X168.833 Y125.865 E1.13655
G1 X169.465 Y126.506 E1.1605
G1 X170.067 Y127.159 E1.18413
G1 X170.122 Y127.22 E1.18632
G1 X170.695 Y127.888 E1.20974
G1 X171.21 Y128.529 E1.23162
G1 X171.85 Y129.384 E1.26003
G1 X172.344 Y130.097 E1.28311
G1 X172.79 Y130.785 E1.30493
G1 X173.274 Y131.591 E1.32995
G1 X173.694 Y132.346 E1.35293
G1 X173.732 Y132.416 E1.35505
G1 X174.132 Y133.198 E1.37843
G1 X174.518 Y134.017 E1.40252
G1 X174.841 Y134.766 E1.42422
G1 X174.872 Y134.841 E1.42638
G1 X175.215 Y135.72 E1.45149
G1 X175.504 Y136.542 E1.47467
G1 X175.769 Y137.377 E1.49798
G1 X176.03 Y138.318 E1.52396
G1 X176.051 Y138.398 E1.52616
G1 X176.251 Y139.238 E1.54914
G1 X176.435 Y140.132 E1.57343
G1 X176.563 Y140.881 E1.59364
G1 X176.702 Y141.901 E1.62104
G1 X176.712 Y141.981 E1.62318
G1 X176.788 Y142.731 E1.64324
G1 X176.857 Y143.745 E1.67028
G1 X176.885 Y144.561 E1.69201
G1 X176.886 Y145.478 E1.71641
G1 X176.885 Y145.559 E1.71856
G1 X176.858 Y146.354 E1.73973
G1 X176.787 Y147.392 E1.76741
G1 X176.714 Y148.119 E1.78685
G1 X176.576 Y149.143 E1.81435
G1 X176.432 Y149.989 E1.83718
G1 X176.253 Y150.869 E1.86107
G1 X176.051 Y151.718 E1.8843
G1 X175.791 Y152.658 E1.91025
G1 X175.769 Y152.735 E1.91238
G1 X175.52 Y153.527 E1.93447
G1 X175.243 Y154.32 E1.95682
G1 X175.215 Y154.397 E1.959
G1 X174.888 Y155.237 E1.98298
G1 X174.551 Y156.023 E2.00574
G1 X174.168 Y156.841 E2.02977
G1 X173.712 Y157.736 E2.0565
G1 X173.674 Y157.808 E2.05866
G1 X173.344 Y158.403 E2.07677
G1 X172.824 Y159.272 E2.10371
G1 X172.782 Y159.34 E2.10584
G1 X172.304 Y160.077 E2.12921
G1 X171.835 Y160.748 E2.151
G1 X171.285 Y161.486 E2.17549
G1 X171.236 Y161.55 E2.17763
G1 X170.679 Y162.245 E2.20133
G1 X170.138 Y162.874 E2.22341
G1 X169.481 Y163.591 E2.24928
G1 X168.917 Y164.166 E2.27071
G1 X168.193 Y164.856 E2.29733
G1 X167.558 Y165.422 E2.31996
G1 X166.862 Y166.001 E2.34405
G1 X166.798 Y166.053 E2.34624
G1 X166.145 Y166.558 E2.36821
G1 X165.348 Y167.134 E2.39437
G1 X164.683 Y167.581 E2.41569
G1 X163.847 Y168.104 E2.44193
G1 X163.776 Y168.147 E2.44414
G1 X163.016 Y168.584 E2.46747
G1 X162.205 Y169.016 E2.49192
G1 X161.473 Y169.375 E2.51361
G1 X160.657 Y169.743 E2.53743
G1 X160.584 Y169.775 E2.53955
G1 X159.789 Y170.101 E2.56241
G1 X158.872 Y170.439 E2.58842
G1 X158.004 Y170.725 E2.61273
G1 X157.13 Y170.983 E2.63698
G1 X156.345 Y171.186 E2.65856
G1 X155.473 Y171.382 E2.68234
G1 X155.393 Y171.399 E2.68451
G1 X154.467 Y171.572 E2.70958
G1 X153.654 Y171.696 E2.73146
G1 X152.773 Y171.802 E2.75507
G1 X151.858 Y171.881 E2.77951
G1 X151.775 Y171.887 E2.78172
G1 X150.866 Y171.932 E2.80594
G1 X149.959 Y171.946 E2.83008
G1 X149.134 Y171.932 E2.85203
G1 X148.225 Y171.887 E2.87625
G1 X147.308 Y171.81 E2.90073
G1 X147.226 Y171.802 E2.90293
G1 X146.423 Y171.706 E2.92444
G1 X145.452 Y171.558 E2.95058
G1 X144.607 Y171.399 E2.97346
G1 X143.738 Y171.207 E2.99714
G1 X143.651 Y171.186 E2.99952
G1 X142.791 Y170.961 E3.02317
G1 X141.996 Y170.726 E3.04523
G1 X141.128 Y170.439 E3.06956
G1 X141.05 Y170.412 E3.07175
G1 X140.291 Y170.131 E3.09329
G1 X139.418 Y169.775 E3.11837
G1 X139.341 Y169.742 E3.1206
G1 X138.53 Y169.375 E3.14429
G1 X137.798 Y169.017 E3.16597
G1 X136.986 Y168.585 E3.19044
G1 X136.916 Y168.547 E3.19256
G1 X136.223 Y168.147 E3.21385
G1 X135.382 Y167.623 E3.24022
G1 X134.721 Y167.182 E3.26136
G1 X134.651 Y167.134 E3.26362
G1 X133.854 Y166.557 E3.2898
G1 X133.137 Y166.001 E3.31394
G1 X132.502 Y165.474 E3.3359
G1 X131.867 Y164.911 E3.35848
G1 X131.14 Y164.223 E3.38511
G1 X130.575 Y163.65 E3.40653
G1 X129.916 Y162.936 E3.43238
G1 X129.318 Y162.239 E3.45681
G1 X129.269 Y162.181 E3.45883
G1 X128.712 Y161.485 E3.48255
G1 X128.207 Y160.807 E3.50505
G1 X127.65 Y160.007 E3.53099
G1 X127.22 Y159.344 E3.55201
G1 X126.696 Y158.469 E3.57915
G1 X126.329 Y157.812 E3.59918
G1 X126.288 Y157.736 E3.60147
G1 X125.832 Y156.841 E3.6282
G1 X125.482 Y156.096 E3.6501
G1 X125.145 Y155.314 E3.67276
G1 X125.114 Y155.239 E3.67492
G1 X124.757 Y154.321 E3.70113
G1 X124.505 Y153.603 E3.72137
G1 X124.231 Y152.734 E3.74562
G1 X124.208 Y152.657 E3.74776
G1 X123.949 Y151.718 E3.77367
G1 X123.764 Y150.948 E3.79475
G1 X123.582 Y150.067 E3.81868
G1 X123.437 Y149.226 E3.84139
G1 X123.424 Y149.144 E3.8436
G1 X123.296 Y148.204 E3.86884
G1 X123.213 Y147.391 E3.89059
G1 X123.142 Y146.354 E3.91824
G1 X123.115 Y145.56 E3.93938
G1 X123.114 Y144.645 E3.96373
G1 X123.115 Y144.563 E3.96591
G1 X123.143 Y143.745 E3.98769
G1 X123.212 Y142.734 E4.01465
G1 X123.288 Y141.982 E4.03476
G1 X123.425 Y140.963 E4.06212
G1 X123.437 Y140.881 E4.06433
G1 X123.58 Y140.052 E4.08671
G1 X123.747 Y139.241 E4.10874
G1 X123.97 Y138.315 E4.13409
G1 X124.208 Y137.457 E4.15778
G1 X124.471 Y136.616 E4.18122
G1 X124.756 Y135.799 E4.20425
G1 X124.785 Y135.72 E4.20649
G1 X125.16 Y134.763 E4.23384
G1 X125.482 Y134.02 E4.25538
G1 X125.867 Y133.2 E4.27949
G1 X126.265 Y132.42 E4.30279
G1 X126.686 Y131.66 E4.3259
G1 X127.167 Y130.857 E4.35081
G1 X127.208 Y130.79 E4.3529
G1 X127.654 Y130.1 E4.37476
G1 X128.151 Y129.384 E4.39795
G1 X128.741 Y128.593 E4.42421
G1 X129.25 Y127.953 E4.44597
G1 X129.881 Y127.218 E4.47174
G1 X129.93 Y127.162 E4.47372
G1 X130.475 Y126.567 E4.49519
G0 F6000 X130.77 Y126.837
G1 F1200 X131.441 Y126.156 E4.52063
G1 X132.13 Y125.501 E4.54593
G1 X132.779 Y124.928 E4.56896
G1 X133.423 Y124.395 E4.59121
G1 X134.188 Y123.805 E4.61691
G1 X134.904 Y123.29 E4.64038
G1 X135.589 Y122.83 E4.66233
G1 X136.462 Y122.288 E4.68968
G1 X137.141 Y121.897 E4.71052
G1 X137.912 Y121.486 E4.73377
G1 X138.74 Y121.08 E4.75831
G1 X139.626 Y120.684 E4.78413
G1 X140.31 Y120.402 E4.80382
G1 X141.204 Y120.071 E4.82918
G1 X142.046 Y119.79 E4.8528
G1 X142.904 Y119.535 E4.87662
G1 X143.795 Y119.304 E4.90111
G1 X144.722 Y119.098 E4.92638
G1 X145.604 Y118.934 E4.95025
G1 X146.408 Y118.812 E4.97189
G1 X147.394 Y118.696 E4.9983
G1 X148.167 Y118.631 E5.01894
G1 X149.14 Y118.581 E5.04487
G1 X150.034 Y118.567 E5.06866
G1 X150.86 Y118.581 E5.09064
G1 X151.831 Y118.631 E5.11651
G1 X152.674 Y118.703 E5.13902
G1 X153.659 Y118.821 E5.16542
G1 X154.461 Y118.945 E5.18701
G1 X155.347 Y119.112 E5.211
G1 X156.271 Y119.32 E5.2362
G1 X157.033 Y119.518 E5.25715
G1 X157.956 Y119.79 E5.28275
G1 X158.734 Y120.049 E5.30457
G1 X159.686 Y120.401 E5.33158
G1 X160.434 Y120.709 E5.3531
G1 X161.323 Y121.11 E5.37905
G1 X162.088 Y121.486 E5.40173
G1 X162.859 Y121.897 E5.42498
G1 X163.538 Y122.289 E5.44584
G1 X164.41 Y122.83 E5.47315
G1 X164.47 Y122.868 E5.47504
G1 X165.148 Y123.325 E5.49679
G1 X165.813 Y123.805 E5.51862
G1 X166.629 Y124.437 E5.54608
G1 X167.27 Y124.97 E5.56826
G1 X167.921 Y125.549 E5.59144
G1 X168.558 Y126.155 E5.61484
G1 X169.225 Y126.834 E5.64016
G1 X169.818 Y127.481 E5.66352
G1 X170.434 Y128.2 E5.68871
G1 X170.938 Y128.831 E5.7102
G1 X171.48 Y129.555 E5.73426
G1 X172.008 Y130.315 E5.75888
G1 X172.454 Y131.003 E5.7807
G1 X172.931 Y131.797 E5.80535
G1 X173.376 Y132.598 E5.82973
G1 X173.805 Y133.44 E5.85487
G1 X174.184 Y134.249 E5.87864
G1 X174.499 Y134.986 E5.89997
G1 X174.867 Y135.931 E5.92695
G1 X175.127 Y136.674 E5.9479
G1 X175.408 Y137.566 E5.97278
G1 X175.662 Y138.491 E5.99831
G1 X175.859 Y139.319 E6.02095
G1 X176.04 Y140.199 E6.04486
G1 X176.179 Y141.017 E6.06694
G1 X176.314 Y142.021 E6.09389
G1 X176.39 Y142.771 E6.11395
G1 X176.457 Y143.758 E6.14027
G1 X176.486 Y144.643 E6.16383
G1 X176.485 Y145.546 E6.18786
G1 X176.458 Y146.341 E6.20902
G1 X176.389 Y147.352 E6.23599
G1 X176.308 Y148.149 E6.2573
G1 X176.18 Y149.09 E6.28257
G1 X176.038 Y149.921 E6.305
G1 X175.861 Y150.789 E6.32858
G1 X175.662 Y151.625 E6.35144
G1 X175.406 Y152.551 E6.37701
G1 X175.138 Y153.407 E6.40087
G1 X174.842 Y154.252 E6.4247
G1 X174.515 Y155.092 E6.44868
G1 X174.183 Y155.865 E6.47106
G1 X173.806 Y156.67 E6.49472
G1 X173.356 Y157.554 E6.52111
G1 X172.994 Y158.209 E6.54102
G1 X172.446 Y159.123 E6.56938
G1 X171.976 Y159.848 E6.59237
G1 X171.471 Y160.569 E6.61579
G1 X170.924 Y161.3 E6.64008
G1 X170.421 Y161.929 E6.66151
G1 X169.834 Y162.613 E6.6855
G1 X169.186 Y163.321 E6.71104
G1 X168.585 Y163.932 E6.73384
G1 X167.868 Y164.612 E6.76013
G1 X167.293 Y165.123 E6.7806
G1 X166.554 Y165.736 E6.80615
G1 X165.847 Y166.281 E6.8299
G1 X165.057 Y166.85 E6.85581
G1 X164.407 Y167.284 E6.8766
G1 X163.576 Y167.801 E6.90264
G1 X162.828 Y168.231 E6.9256
G1 X162.029 Y168.657 E6.94969
G1 X161.297 Y169.016 E6.97139
G1 X160.493 Y169.378 E6.99485
G1 X159.637 Y169.73 E7.01948
G1 X158.81 Y170.037 E7.04295
G1 X158.746 Y170.06 E7.04476
G1 X157.891 Y170.342 E7.06871
G1 X157.097 Y170.577 E7.09075
G1 X156.181 Y170.814 E7.11592
G1 X155.386 Y170.992 E7.1376
G1 X154.407 Y171.176 E7.1641
G1 X153.529 Y171.309 E7.18773
G1 X152.658 Y171.412 E7.21107
G1 X151.824 Y171.483 E7.23334
G1 X150.859 Y171.532 E7.25905
G1 X149.966 Y171.546 E7.28282
G1 X149.141 Y171.532 E7.30477
G1 X148.177 Y171.483 E7.33045
G1 X147.274 Y171.405 E7.35457
G1 X146.406 Y171.3 E7.37783
G1 X145.526 Y171.165 E7.40152
G1 X144.618 Y170.993 E7.42611
G1 X143.824 Y170.817 E7.44775
G1 X142.966 Y170.594 E7.47134
G1 X142.109 Y170.342 E7.49511
G1 X141.253 Y170.059 E7.5191
G1 X141.189 Y170.037 E7.5209
G1 X140.43 Y169.756 E7.54243
G1 X139.57 Y169.405 E7.56715
G1 X138.705 Y169.016 E7.59239
G1 X137.973 Y168.658 E7.61407
G1 X137.116 Y168.2 E7.63992
G1 X136.364 Y167.765 E7.66304
G1 X135.539 Y167.249 E7.68893
G1 X134.943 Y166.85 E7.70802
G1 X134.151 Y166.279 E7.73399
G1 X133.447 Y165.736 E7.75765
G1 X132.758 Y165.166 E7.78144
G1 X132.084 Y164.568 E7.80542
G1 X131.365 Y163.884 E7.83183
G1 X130.86 Y163.37 E7.851
G1 X130.21 Y162.665 E7.87651
G1 X129.621 Y161.979 E7.90057
G1 X129.077 Y161.303 E7.92366
G1 X128.528 Y160.568 E7.94807
G1 X128.023 Y159.844 E7.97156
G1 X127.556 Y159.126 E7.99435
G1 X127.517 Y159.064 E7.9963
G1 X127.009 Y158.212 E8.02269
G1 X126.644 Y157.554 E8.04271
G1 X126.194 Y156.67 E8.06911
G1 X125.816 Y155.864 E8.09279
G1 X125.487 Y155.094 E8.11507
G1 X125.135 Y154.188 E8.14094
G1 X124.862 Y153.407 E8.16295
G1 X124.594 Y152.55 E8.18684
G1 X124.338 Y151.624 E8.21241
G1 X124.139 Y150.79 E8.23522
G1 X123.962 Y149.922 E8.25879
G1 X123.82 Y149.09 E8.28125
G1 X123.684 Y148.08 E8.30837
G1 X123.606 Y147.288 E8.32954
G1 X123.542 Y146.34 E8.35482
G1 X123.514 Y145.478 E8.37777
G1 X123.515 Y144.577 E8.40174
G1 X123.543 Y143.759 E8.42352
G1 X123.61 Y142.774 E8.44979
G1 X123.694 Y141.955 E8.4717
G1 X123.821 Y141.017 E8.49689
G1 X123.972 Y140.133 E8.52075
G1 X124.139 Y139.322 E8.54278
G1 X124.356 Y138.422 E8.56741
G1 X124.613 Y137.5 E8.59288
G1 X124.873 Y136.674 E8.61592
G1 X125.133 Y135.931 E8.63687
G1 X125.527 Y134.921 E8.66571
G1 X125.844 Y134.189 E8.68694
G1 X126.194 Y133.442 E8.70889
G1 X126.622 Y132.602 E8.73397
G1 X127.036 Y131.854 E8.75672
G1 X127.51 Y131.063 E8.78126
G1 X127.544 Y131.007 E8.783
G1 X128.028 Y130.26 E8.80669
G1 X128.519 Y129.557 E8.8295
G1 X129.1 Y128.782 E8.85527
G1 X129.61 Y128.145 E8.87699
G1 X130.225 Y127.432 E8.90204
G1 X130.77 Y126.837 E8.92351
G0 F6000 X131.106 Y127.064
G1 F1200 X131.717 Y126.446 E8.94663
G1 X132.395 Y125.801 E8.97153
G1 X133.035 Y125.236 E8.99425
G1 X133.668 Y124.711 E9.01613
G1 X134.422 Y124.129 E9.04148
G1 X135.127 Y123.622 E9.06458
G1 X135.8 Y123.17 E9.08615
G1 X136.662 Y122.634 E9.11316
G1 X137.329 Y122.25 E9.13364
G1 X138.148 Y121.815 E9.15831
G1 X138.904 Y121.445 E9.18071
G1 X139.778 Y121.054 E9.20619
G1 X140.518 Y120.75 E9.22747
G1 X141.392 Y120.429 E9.25225
G1 X142.222 Y120.154 E9.27551
G1 X143.07 Y119.904 E9.29904
G1 X143.883 Y119.695 E9.32137
G1 X144.795 Y119.491 E9.34624
G1 X145.665 Y119.329 E9.36979
G1 X146.455 Y119.209 E9.39105
G1 X147.373 Y119.1 E9.41565
G1 X148.253 Y119.026 E9.43914
G1 X149.147 Y118.981 E9.46296
G1 X150.027 Y118.967 E9.48638
G1 X150.908 Y118.983 E9.50982
G1 X151.798 Y119.03 E9.53354
G1 X152.627 Y119.1 E9.55568
G1 X153.598 Y119.216 E9.5817
G1 X154.388 Y119.338 E9.60297
G1 X155.205 Y119.491 E9.62508
G1 X156.17 Y119.707 E9.65139
G1 X156.982 Y119.919 E9.67372
G1 X157.829 Y120.17 E9.69723
G1 X158.656 Y120.446 E9.72043
G1 X159.534 Y120.771 E9.74534
G1 X160.27 Y121.074 E9.76652
G1 X161.147 Y121.469 E9.79211
G1 X161.9 Y121.839 E9.81443
G1 X162.719 Y122.277 E9.83915
G1 X163.382 Y122.661 E9.85953
G1 X164.247 Y123.2 E9.88665
G1 X164.87 Y123.619 E9.90663
G1 X165.62 Y124.161 E9.93125
G1 X166.374 Y124.744 E9.95661
G1 X166.966 Y125.236 E9.97709
G1 X167.645 Y125.839 E10.00126
G1 X168.32 Y126.482 E10.02606
G1 X168.931 Y127.105 E10.04928
G1 X169.514 Y127.741 E10.07224
G1 X170.122 Y128.45 E10.09709
G1 X170.618 Y129.071 E10.11824
G1 X171.193 Y129.841 E10.14381
G1 X171.673 Y130.533 E10.16621
G1 X172.148 Y131.268 E10.1895
G1 X172.616 Y132.05 E10.21375
G1 X173.019 Y132.78 E10.23594
G1 X173.443 Y133.611 E10.26076
G1 X173.816 Y134.406 E10.28413
G1 X174.127 Y135.131 E10.30512
G1 X174.47 Y136.01 E10.33022
G1 X174.765 Y136.854 E10.35401
G1 X175.022 Y137.673 E10.37685
G1 X175.273 Y138.584 E10.402
G1 X175.468 Y139.4 E10.42432
G1 X175.646 Y140.266 E10.44784
G1 X175.783 Y141.07 E10.46954
G1 X175.916 Y142.062 E10.49618
G1 X175.996 Y142.865 E10.51765
G1 X176.057 Y143.772 E10.54184
G1 X176.086 Y144.643 E10.56502
